X:1
T:Title
%%score { 1 | ( 2 3 ) }
L:1/8
M:6/8
K:C
V:1 treble nm="Grand Piano"
V:2 bass 
V:3 bass 
V:1
 z3 z2[Q:1/4=90] [CE]/[DF]/ | [EG]2 [EG] [Ec]2 [Gc] | .[Ad]2 [CFA] [CEG]2 [^G,DE] | %3
 [A,CA]2 [CA][K:bass] [^F,CD]>E[F,CD] |[M:5/8][K:treble] [G,B,G]-[G,B,G]- [G,B,G]3 | %5
[M:1/8] [G,DF] |[M:3/4] [G,CE]2 [G,EG] [Ec]2 G | AB c d2 [^Gc] | e2 d c2 B | [Ec]6 | %10
 e2 eE- E/^F/^G | A2 B c2 c | d2 dD- D/E/[^F,CD] | [G,B,G]4- [G,B,G][G,DF] | %14
 [G,CE]2 [G,EG][Ec] [Ec]G | AB c d2 [^Gc] | [Ge]2 [FGd] [EGc]2 [DFB] | %17
[M:5/8] [CEc]-[CEc]- [CEc]3 |] %18
V:2
 z3 z2 [C,G,] | [C,C]2 [C,C] [C,G,]2 [E,C] | .[F,C]3[K:treble][K:bass] z3 | %3
 A,,2 [A,,E,] z z/ C/D, |[M:5/8] G,,-G,,- G,,3 |[M:1/8] B,, |[M:3/4] C,2 C, [C,G,]2 [E,C] | %7
 [F,CF]2 [F,A,F] [F,A,F]2 [F,D] | [G,CG]2 [G,FG] [G,EG]2 [G,DF] | [C,C]6 | %10
 [E,E]2 [E,E]E,- E,/^F,/^G, | [A,CE]2 [^G,B,E] [A,E]2 [A,E] | [D,D]2 [D,D]A,- A,/G,/D, | %13
 G,,4- G,,B,, | C,2 C,[C,G,] [C,G,][E,C] | [F,CF]2 [F,A,F] [F,A,F]2 [F,D] | [G,C]2 G, G,,2 G,, | %17
[M:5/8] C,-C,- C,3 |] %18
V:3
 x6 | x6 | z[K:treble] c[K:bass]F, C,2 B,, | z3 .D,3 |[M:5/8] x5 |[M:1/8] x |[M:3/4] x6 | x6 | x6 | %9
 x6 | x6 | x6 | z2 z .[D,C]3 | x6 | x6 | x6 | x6 |[M:5/8] x5 |] %18

